!!!COM: Music21
!!!OTL: barndance_Reel-Malouin
!!!OMV: barndance_Reel-Malouin
**kern
*clefG2
*k[f#]
*G:
*M4/4
=1
8bL
8aJ
8bL
8ccJ
4dd
8ggL
8ff#J
=
8eeL
8ggJ
8eeL
8cc#XJ
8ddL
8eeJ
8ddL
8ccnJ
=
8bL
8aJ
8bL
8ccJ
4dd
8ggL
8ff#J
=
8eeL
8ggJ
8eeL
8cc#XJ
4dd
4dd
=
8bL
8aJ
8bL
8ccJ
4dd
8ggL
8ff#J
!!linebreak:original
=
8eeL
8ggJ
8eeL
8cc#XJ
8ddL
8eeJ
8ddL
8ccnJ
=
8bL
8aJ
8bL
8ccJ
4dd
8ggL
8ff#J
=
8eeL
8ggJ
8eeL
8cc#XJ
4.dd
8dd
=||
4.G 4.g
8b
8ddL
8bJ
8gL
8bJ
=
8aL
8ccJ
8aL
8f#J
8gL
8f#J
8eL
8dJ
!!linebreak:original
=
4.G 4.g
8b
8ddL
8bJ
8gL
8bJ
=
8aL
8ccJ
8aL
8f#J
4g
4d
=
4.G 4.g
8b
8ddL
8bJ
8gL
8bJ
=
8aL
8ccJ
8aL
8f#J
8gL
8f#J
8eL
8dJ
=
4.G 4.g
8b
8ddL
8bJ
8gL
8bJ
=
8aL
8ccJ
8aL
8f#J
4.g
8g
=||
*-
